X:26
C:Page 13
T:No 5 by Mr Ware. MBe.26
S:Matthew Betham MS, Towcett Cumbria, 1815
O:England;Cumbria;Towcett
Z:VMP – Hugh Taylor, 2012
M:C
L:1/8
Q:1/2=80
R:.March
N:NB-Bar line added
K:D
EA|d2 d>d dAFA|D2 D>D D2 cd|e2 e>e edcB|A2 A>A A2 FA|
d2 d>d dAGF|E2 E>E E2 A2|Bdcd AGFE|D2 D>D D2:|
|:fg”^NB”|a2 a>a agfe|d2 d>d d2 cd|e2 e>e edcB|A2 AA AGFE|
DEFD EFGE|FGAF GABG|dcde fedc|d2 d>d d2:|

